X:570
T:Miss May Hay
R:Reel
B:The Athole Collection
M:C|
L:1/8
K:E Minor
F|E/E/E GA B2 Ee|dBAd FDDF|E/E/E GA B2 Ad|FADF BE E:|
|:B|egfe dBeg|fdAd FDDB|egfe dBeg|fdFA BEE:|

